X: 19888
T: Jig For An Elderly Gent
R: jig
M: 6/8
K: Dmajor
AdA BAG|AdA F2A|DEF GAF|G3 E2A|
AdA BAG|AdA F2A|B2 c3 (d|d6)|
AdA BAG|AdA F2A|ABB BAG|AFA GEA|
AdA BAG|AdA F2A|B2 c3 (d|d6)|
dc(A A)FG|AF2 GE2|dc(A A)AG|E2 F2 G2|
dc(A A)AG|AF2 GE2|B2 c3 (d|d6)|
dc(A A)GA|gf(d d)A2|dc(A A)AG|E2 F2 G2|
dc(A A)AG|AF2 GE2|B2 c3 (d|d6)|
|:AdA BdA|=cdA BdA|B2 A2 d2|d6:|

